X: 41793
T: Velvet, The
R: jig
M: 6/8
K: Dminor
|:A3 GBA|GFE D2G|A2f f2e|dcA GAc|
dzD FGA|czC EFG|ABA GcA|1 G3 GFG:|2 G3 G2F||
|:EDE FEF|GEC EFG|AGA BAB|cAF GAc|
dzD FGA|czC EFG|ABA GcA|1 G3 G2F:|2 G3 G3|G2c cBA||
|:G2B A2F|G2c cBA|G2B A2F|A2d dcB|
A2c cBA|G2B AGF|EDE FEC|1 D2c cBA:|2 D3- D3||

